X: 6
T: The Bucks Of Oranmore
R: reel
M: 4/4
L: 1/8
K: Dmaj
|A2FA A2dB|A2FA BEE2|A2FA A2Bd|egfd edBd|
A2FA A2dB|A2FA BEE2|DEFG AFAB|defd ecdB||
|AD D2 ADBD|ADFA BEE2|AD D2 A2Bd|egfd edBd|
AD D2 ADBD|ADFA BEE2|DEFG AFAB|defd efge||
|a2fd edBd|Adfd edBd|a2fd edBd|egfd edBd|
a2fd edBd|Adfd edBd|faaf bfaf|defd edBd||
|fAdf eAde|fAdf edBd|fAdf eAdf|(3efg fd edBd|
fAdf eAde|fAdf edBd|faaf bfaf|defd edBd||
|Adfd edfd|Adfd edBd|Adfd edfd |egfd edBd|
Adfd edfd|Adfd edBd|faaf bfaf|defd edBd||


Tune 2	Setting 24998

